######################
# Now with comments! #
######################
SETCOLOR 10 40 255
FORWARD 10
LEFT
FORWARD 20
RIGHT
FORWARD 30
LEFT
SETCOLOR 0xaaaa00
FORWARD 10
LEFT
FORWARD 25
RIGHT
FORWARD 40
LEFT
SETCOLOR 0x0aa
FORWARD 40
LEFT
FORWARD 75
LEFT
SETCOLOR 0x08a
FORWARD 5
RIGHT
FORWARD 20
SETCOLOR 200 0 200
# Can also use shorthand names and values
L
F 10
L
F 20
R
F 15
L
F 5
L
# Smile!
FORWARD 10
RIGHT
FORWARD 1
LEFT
FORWARD 1
RIGHT
FORWARD 1
LEFT
FORWARD 1
# Move silently
PENUP
FORWARD 100
# Start writing again
RIGHT
PENDOWN
SETCOLOR 0xa00
FORWARD 30

REPEAT 4 [ REPEAT 4 [ REPEAT 4 [ REPEAT 4 [ L F 10 ] F 10 ] L F 10 ] F 5 L F 10 ]

U
L
L
F 100
D
C 0x0f0

REPEAT 2 [ REPEAT 4 [ F 20 C 200 100 150 F 20 C 255 255 0 L F 5 C 0 255 255 R F 8 L F 8 R C 255 0 255 F 5 L ] F 1 L F 1 R ]